!!!!SEGMENT: pl-kk--kk-i-636--001-001_anonim--in-corona-domini-lamentatio-1a.krn
!!!cenid: 18xx:4523
!!!COM: Anonim
!!!COM-rismID: pe30004985
!!!CDT:
!!!CNT:
!!!OPR: In Corona Domini
!!!OTL: Lamentatio 1a
!!!OMV: 001
!!!PDT:
!!!AGN: Sacred
!!!YEC: Copyright 2022 Narodowy Instytut Fryderyka Chopina (https://polishscores.org)
!!!YEM: License CC-BY-4.0 (https://creativecommons.org/licenses/by/4.0)
!!!SMS-siglum: PL-Kk
!!!SMS-shelfmark: Kk.I.636
!!!SMS-variant:
!!!SMS-altvar:
!!!SMS-shelfwork: 001-001 M
!!!NIFC-rismSourceID: 1001216440
!!!NIFC-rismChildID: 1001216863
!!!NIFC-islandoraID: pl-kk:40786
!!!URL-pdf-islandora: https://repozytorium.nifc.pl/islandora/object/pl-kk%3A40786/datastream/PDF/view
!!!URL-scan: https://polish.musicsources.pl/pl/lokalizacje/galeria/rekopisy/7271/1 @EN{Scan on Polish Music Sources Website} @PL{Skany w portalu Dziedzictwo Muzyki Polskiej w otwartym dostępie}
!!!IIIF:
!!!ONB-nifc: UWAGA: Lamentacje i Responsoria In Corona Domini na skanach: S – 1-7, A – 24-30, T – 45-52, B – 70-78. Każda Lamentacja i Responsorium to oddzielne pliki.
!!!OMD:
!!!AIN: 1 alto 1 bass 1 soprn 1 tenor
!!!key: A
**kern	**text	**kern	**text	**kern	**text	**kern	**text
*part4	*part4	*part3	*part3	*part2	*part2	*part1	*part1
*staff4	*staff4	*staff3	*staff3	*staff2	*staff2	*staff1	*staff1
*Ibass	*	*Itenor	*	*Ialto	*	*Isoprn	*
*ICvox	*	*ICvox	*	*ICvox	*	*ICvox	*
*I"Basso.	*	*I"Tenore.	*	*I"Alto.	*	*I"Soprano.	*
*I'B	*	*I'T	*	*I'A	*	*I'S	*
*clefF4	*	*clefC1	*	*clefC3	*	*clefC1	*
*k[f#c#g#]	*	*k[f#c#g#]	*	*k[f#c#g#]	*	*k[f#c#g#]	*
*A:	*	*A:	*	*A:	*	*A:	*
*M2/4	*	*M2/4	*	*M2/4	*	*M2/4	*
=1	=1	=1	=1	=1	=1	=1	=1
!	!	!LO:TX:a:t=P:problem:all\right	!	!	!	!	!
!LO:TX:a:Bi:t=Lamentatio 1ma. Tacet.	!	!LO:TX:a:Bi:t=Lamentatio 1ma.	!	!LO:TX:a:Bi:t=Lamentatio 1ma. Tacet.	!	!LO:TX:a:Bi:t=Lamentatio 1ma. tacet.	!
2r	.	4a\	In-	2r	.	2r	.
.	.	(4b\	.	.	.	.	.
=2	=2	=2	=2	=2	=2	=2	=2
2r	.	8cc#\)	.	2r	.	2r	.
.	.	8cc#\	-ci-	.	.	.	.
.	.	4cc#\	-pit	.	.	.	.
=3	=3	=3	=3	=3	=3	=3	=3
2r	.	4r	.	2r	.	2r	.
.	.	8cc#\	la-	.	.	.	.
.	.	8cc#\	-men-	.	.	.	.
!	!	!LO:LB:g=original	!	!	!	!	!
=4	=4	=4	=4	=4	=4	=4	=4
2r	.	8cc#\	-ta-	2r	.	2r	.
.	.	8cc#\	-ti-	.	.	.	.
.	.	4cc#\	-o	.	.	.	.
=5	=5	=5	=5	=5	=5	=5	=5
2r	.	4r	.	2r	.	2r	.
.	.	8cc#\	Je-	.	.	.	.
.	.	8cc#\	-re-	.	.	.	.
=6	=6	=6	=6	=6	=6	=6	=6
2r	.	4dd\	-mi-	2r	.	2r	.
!	!	!LO:SIC:v:l:s=-ae	!	!	!	!	!
.	.	8b\	-e	.	.	.	.
.	.	8b\	Pro-	.	.	.	.
=7	=7	=7	=7	=7	=7	=7	=7
2r	.	4a\	-phe-	2r	.	2r	.
.	.	4g#\	.	.	.	.	.
=8	=8	=8	=8	=8	=8	=8	=8
2r	.	4a\	.	2r	.	2r	.
.	.	4b\	.	.	.	.	.
=9	=9	=9	=9	=9	=9	=9	=9
*	*	*2\right	*	*	*	*	*
2r	.	2b\	-tae,	2r	.	2r	.
=10	=10	=10	=10	=10	=10	=10	=10
2r	.	2a;\	.	2r	.	2r	.
!	!	!LO:LB:g=original	!	!	!	!	!
=11||	=11||	=11||	=11||	=11||	=11||	=11||	=11||
2r	.	4cc#\	A-	2r	.	2r	.
.	.	4b\	.	.	.	.	.
=12	=12	=12	=12	=12	=12	=12	=12
2r	.	4a\	.	2r	.	2r	.
.	.	4b\	.	.	.	.	.
=13	=13	=13	=13	=13	=13	=13	=13
2r	.	2b\	-leph,	2r	.	2r	.
=14	=14	=14	=14	=14	=14	=14	=14
2r	.	2a;\	.	2r	.	2r	.
=15||	=15||	=15||	=15||	=15||	=15||	=15||	=15||
2r	.	4a\	Quo-	2r	.	2r	.
.	.	4b\	.	.	.	.	.
=16	=16	=16	=16	=16	=16	=16	=16
2r	.	8cc#\	.	2r	.	2r	.
.	.	8cc#\	-mo-	.	.	.	.
.	.	4cc#\	-do	.	.	.	.
=17	=17	=17	=17	=17	=17	=17	=17
2r	.	8cc#\	se-	2r	.	2r	.
.	.	8cc#\	-det	.	.	.	.
.	.	8cc#\	so-	.	.	.	.
.	.	8cc#\	-la	.	.	.	.
!	!	!LO:LB:g=original	!	!	!	!	!
=18	=18	=18	=18	=18	=18	=18	=18
2r	.	8cc#\	ci-	2r	.	2r	.
.	.	8cc#\	-vit-	.	.	.	.
.	.	4cc#\	-as,	.	.	.	.
=19	=19	=19	=19	=19	=19	=19	=19
2r	.	4r	.	2r	.	2r	.
.	.	4cc#\	ple-	.	.	.	.
=20	=20	=20	=20	=20	=20	=20	=20
2r	.	4dd\	.	2r	.	2r	.
.	.	4cc#\	-na	.	.	.	.
=21	=21	=21	=21	=21	=21	=21	=21
2r	.	8b\	po-	2r	.	2r	.
.	.	8b\	-pu-	.	.	.	.
.	.	4b\	-lo,	.	.	.	.
=22	=22	=22	=22	=22	=22	=22	=22
2r	.	4cc#\	.	2r	.	2r	.
.	.	4r	.	.	.	.	.
=23	=23	=23	=23	=23	=23	=23	=23
2r	.	4a\	fac-	2r	.	2r	.
.	.	4b\	.	.	.	.	.
!	!	!LO:LB:g=original	!	!	!	!	!
=24	=24	=24	=24	=24	=24	=24	=24
2r	.	8cc#\	.	2r	.	2r	.
.	.	8cc#\	-ta	.	.	.	.
.	.	4cc#\	est	.	.	.	.
=25	=25	=25	=25	=25	=25	=25	=25
2r	.	4r	.	2r	.	2r	.
.	.	8cc#\	qua-	.	.	.	.
.	.	8cc#\	-si	.	.	.	.
=26	=26	=26	=26	=26	=26	=26	=26
2r	.	8cc#\	vi-	2r	.	2r	.
.	.	8cc#\	-du-	.	.	.	.
.	.	4cc#\	-a	.	.	.	.
=27	=27	=27	=27	=27	=27	=27	=27
2r	.	8.dd\	Do-	2r	.	2r	.
.	.	16cc#\	-mi-	.	.	.	.
.	.	4cc#\	-na	.	.	.	.
=28	=28	=28	=28	=28	=28	=28	=28
2r	.	8b\	gen-	2r	.	2r	.
.	.	8b\	-ti-	.	.	.	.
.	.	(4b\	-um,	.	.	.	.
!	!	!LO:LB:g=original	!	!	!	!	!
=29	=29	=29	=29	=29	=29	=29	=29
!	!	!LO:TX:t=P:problem:brak zakończenia łuku	!	!	!	!	!
2r	.	4cc#\)	.	2r	.	2r	.
.	.	4r	.	.	.	.	.
=30	=30	=30	=30	=30	=30	=30	=30
2r	.	4a\	prin-	2r	.	2r	.
.	.	(4b\	.	.	.	.	.
=31	=31	=31	=31	=31	=31	=31	=31
2r	.	8cc#\)	.	2r	.	2r	.
.	.	8cc#\	-ceps	.	.	.	.
.	.	8r	.	.	.	.	.
.	.	8cc#\	pro-	.	.	.	.
=32	=32	=32	=32	=32	=32	=32	=32
2r	.	8cc#\	-vin-	2r	.	2r	.
.	.	8cc#\	-ti-	.	.	.	.
.	.	8cc#\	-a-	.	.	.	.
.	.	8cc#\	-rum	.	.	.	.
=33	=33	=33	=33	=33	=33	=33	=33
2r	.	8cc#\	fac-	2r	.	2r	.
.	.	8cc#\	-ta	.	.	.	.
.	.	4cc#\	est	.	.	.	.
!	!	!LO:LB:g=original	!	!	!	!	!
=34	=34	=34	=34	=34	=34	=34	=34
2r	.	4dd\	sub	2r	.	2r	.
.	.	4b\	tri-	.	.	.	.
=35	=35	=35	=35	=35	=35	=35	=35
2r	.	4a\	-bu-	2r	.	2r	.
.	.	4g#\	.	.	.	.	.
=36	=36	=36	=36	=36	=36	=36	=36
2r	.	4a\	.	2r	.	2r	.
.	.	4b\	.	.	.	.	.
=37	=37	=37	=37	=37	=37	=37	=37
2r	.	2b\	-to,	2r	.	2r	.
=38	=38	=38	=38	=38	=38	=38	=38
2r	.	2a;\	.	2r	.	2r	.
=39||	=39||	=39||	=39||	=39||	=39||	=39||	=39||
2r	.	4cc#\	Beth,	2r	.	2r	.
.	.	4b\	.	.	.	.	.
=40	=40	=40	=40	=40	=40	=40	=40
2r	.	4a\	.	2r	.	2r	.
.	.	4b\	.	.	.	.	.
=41	=41	=41	=41	=41	=41	=41	=41
!	!	!LO:LB:g=original	!	!	!	!	!
2r	.	2a;\	.	2r	.	2r	.
=42||	=42||	=42||	=42||	=42||	=42||	=42||	=42||
2r	.	4a\	plo-	2r	.	2r	.
.	.	4b\	.	.	.	.	.
=43	=43	=43	=43	=43	=43	=43	=43
2r	.	8cc#\	.	2r	.	2r	.
.	.	8cc#\	-rans,	.	.	.	.
.	.	8r	.	.	.	.	.
.	.	8cc#\	plo-	.	.	.	.
=44	=44	=44	=44	=44	=44	=44	=44
2r	.	4cc#\	-ra-	2r	.	2r	.
.	.	8cc#\	-vit	.	.	.	.
.	.	8cc#\	in	.	.	.	.
=45	=45	=45	=45	=45	=45	=45	=45
2r	.	8cc#\	noc-	2r	.	2r	.
.	.	8cc#\	-te	.	.	.	.
.	.	8r	.	.	.	.	.
.	.	8cc#\	et	.	.	.	.
!	!	!LO:LB:g=original	!	!	!	!	!
=46	=46	=46	=46	=46	=46	=46	=46
2r	.	8cc#\	la-	2r	.	2r	.
.	.	16cc#\	-cry-	.	.	.	.
.	.	16cc#\	-mae	.	.	.	.
.	.	8cc#\	e-	.	.	.	.
.	.	8cc#\	-jus	.	.	.	.
=47	=47	=47	=47	=47	=47	=47	=47
2r	.	4r	.	2r	.	2r	.
.	.	8cc#\	in	.	.	.	.
.	.	8cc#\	ma-	.	.	.	.
=48	=48	=48	=48	=48	=48	=48	=48
2r	.	4dd\	-xil-	2r	.	2r	.
.	.	4cc#\	-lis	.	.	.	.
=49	=49	=49	=49	=49	=49	=49	=49
2r	.	4b\	e-	2r	.	2r	.
.	.	(4b\	-jus,	.	.	.	.
=50	=50	=50	=50	=50	=50	=50	=50
2r	.	4cc#\)	.	2r	.	2r	.
.	.	4r	.	.	.	.	.
!	!	!LO:LB:g=original	!	!	!	!	!
=51	=51	=51	=51	=51	=51	=51	=51
2r	.	4a\	non	2r	.	2r	.
.	.	4b\	est,	.	.	.	.
=52	=52	=52	=52	=52	=52	=52	=52
2r	.	4cc#\	.	2r	.	2r	.
.	.	8r	.	.	.	.	.
.	.	8cc#\	qui	.	.	.	.
=53	=53	=53	=53	=53	=53	=53	=53
2r	.	8cc#\	con-	2r	.	2r	.
.	.	8cc#\	-so-	.	.	.	.
.	.	8cc#\	-le-	.	.	.	.
.	.	8cc#\	-tur	.	.	.	.
=54	=54	=54	=54	=54	=54	=54	=54
2r	.	8cc#\	e-	2r	.	2r	.
.	.	8cc#\	-am	.	.	.	.
.	.	8r	.	.	.	.	.
.	.	8cc#\	ex	.	.	.	.
!	!	!LO:LB:g=original	!	!	!	!	!
=55	=55	=55	=55	=55	=55	=55	=55
2r	.	8.cc#\	om-	2r	.	2r	.
.	.	16cc#\	-ni-	.	.	.	.
.	.	4cc#\	-bus	.	.	.	.
=56	=56	=56	=56	=56	=56	=56	=56
2r	.	4dd\	cha-	2r	.	2r	.
.	.	8b\	-ris	.	.	.	.
.	.	8b\	e-	.	.	.	.
=57	=57	=57	=57	=57	=57	=57	=57
2r	.	2b\	-jus,	2r	.	2r	.
=58	=58	=58	=58	=58	=58	=58	=58
2r	.	2a;\	.	2r	.	2r	.
=59	=59	=59	=59	=59	=59	=59	=59
2r	.	4a\	om-	2r	.	2r	.
.	.	4b\	.	.	.	.	.
=60	=60	=60	=60	=60	=60	=60	=60
2r	.	8cc#\	.	2r	.	2r	.
.	.	8cc#\	-nes,	.	.	.	.
.	.	8r	.	.	.	.	.
.	.	8cc#\	a-	.	.	.	.
!	!	!LO:LB:g=original	!	!	!	!	!
=61	=61	=61	=61	=61	=61	=61	=61
2r	.	8cc#\	-mi-	2r	.	2r	.
.	.	8cc#\	-ci	.	.	.	.
.	.	8cc#\	e-	.	.	.	.
.	.	8cc#\	-jus,	.	.	.	.
=62	=62	=62	=62	=62	=62	=62	=62
2r	.	4r	.	2r	.	2r	.
.	.	4cc#\	spre-	.	.	.	.
=63	=63	=63	=63	=63	=63	=63	=63
2r	.	4dd\	-ve-	2r	.	2r	.
.	.	4cc#\	-runt	.	.	.	.
=64	=64	=64	=64	=64	=64	=64	=64
2r	.	4b\	e-	2r	.	2r	.
.	.	4b\	-am,	.	.	.	.
=65	=65	=65	=65	=65	=65	=65	=65
2r	.	4cc#\	.	2r	.	2r	.
!	!	!LO:TX:a:t=V&colon; S&colon;	!	!	!	!	!
.	.	4r	.	.	.	.	.
!	!	!LO:PB:g=original	!	!	!	!	!
=66	=66	=66	=66	=66	=66	=66	=66
2r	.	4a\	et	2r	.	2r	.
.	.	(4b\	fa-	.	.	.	.
=67	=67	=67	=67	=67	=67	=67	=67
2r	.	4cc#\)	.	2r	.	2r	.
.	.	8cc#\	-cti	.	.	.	.
.	.	8cc#\	sunt	.	.	.	.
=68	=68	=68	=68	=68	=68	=68	=68
2r	.	8cc#\	e-	2r	.	2r	.
.	.	8cc#\	-i,	.	.	.	.
.	.	4r	.	.	.	.	.
=69	=69	=69	=69	=69	=69	=69	=69
2r	.	4dd\	i-	2r	.	2r	.
.	.	8b\	-ni-	.	.	.	.
.	.	8b\	-mi-	.	.	.	.
=70	=70	=70	=70	=70	=70	=70	=70
2r	.	4a\	.	2r	.	2r	.
.	.	4g#\	.	.	.	.	.
=71	=71	=71	=71	=71	=71	=71	=71
2r	.	4a\	.	2r	.	2r	.
.	.	4b\	.	.	.	.	.
!	!	!LO:LB:g=original	!	!	!	!	!
=72	=72	=72	=72	=72	=72	=72	=72
2r	.	2b\	-ci,	2r	.	2r	.
=73	=73	=73	=73	=73	=73	=73	=73
2r	.	2a;\	.	2r	.	2r	.
=74||	=74||	=74||	=74||	=74||	=74||	=74||	=74||
2r	.	4cc#\	Gim-	2r	.	2r	.
.	.	4b\	.	.	.	.	.
=75	=75	=75	=75	=75	=75	=75	=75
2r	.	4a\	.	2r	.	2r	.
.	.	4b\	.	.	.	.	.
=76	=76	=76	=76	=76	=76	=76	=76
2r	.	2a;\	-mel,	2r	.	2r	.
=77||	=77||	=77||	=77||	=77||	=77||	=77||	=77||
2r	.	4a\	mi-	2r	.	2r	.
.	.	(4b\	-gra-	.	.	.	.
=78	=78	=78	=78	=78	=78	=78	=78
2r	.	8cc#\)	.	2r	.	2r	.
.	.	8cc#\	-vit	.	.	.	.
.	.	8cc#\	Ju-	.	.	.	.
.	.	8cc#\	-das	.	.	.	.
=79	=79	=79	=79	=79	=79	=79	=79
2r	.	4r	.	2r	.	2r	.
.	.	8cc#\	pro-	.	.	.	.
.	.	16cc#\	-pter	.	.	.	.
.	.	16cc#\	af-	.	.	.	.
=80	=80	=80	=80	=80	=80	=80	=80
2r	.	8cc#\	-fli-	2r	.	2r	.
.	.	8cc#\	-cti-	.	.	.	.
.	.	8cc#\	-o-	.	.	.	.
.	.	8cc#\	-nem	.	.	.	.
=81	=81	=81	=81	=81	=81	=81	=81
2r	.	8r	.	2r	.	2r	.
.	.	8cc#\	et	.	.	.	.
.	.	8cc#\	mul-	.	.	.	.
.	.	8cc#\	-ti-	.	.	.	.
=82	=82	=82	=82	=82	=82	=82	=82
2r	.	8.cc#\	-tu-	2r	.	2r	.
.	.	16cc#\	-di-	.	.	.	.
.	.	4cc#\	-nem	.	.	.	.
!	!	!LO:LB:g=original	!	!	!	!	!
=83	=83	=83	=83	=83	=83	=83	=83
2r	.	4dd\	ser-	2r	.	2r	.
.	.	4cc#\	-vi-	.	.	.	.
=84	=84	=84	=84	=84	=84	=84	=84
2r	.	8cc#\L	-tu-	2r	.	2r	.
.	.	8b\J	.	.	.	.	.
.	.	(4b\	-tis,	.	.	.	.
=85	=85	=85	=85	=85	=85	=85	=85
2r	.	4cc#\)	.	2r	.	2r	.
.	.	4r	.	.	.	.	.
=86	=86	=86	=86	=86	=86	=86	=86
2r	.	4a\	ha-	2r	.	2r	.
.	.	(4b\	.	.	.	.	.
=87	=87	=87	=87	=87	=87	=87	=87
2r	.	8cc#\)	.	2r	.	2r	.
.	.	8cc#\	-bi-	.	.	.	.
.	.	8cc#\	-ta-	.	.	.	.
.	.	8cc#\	-vit	.	.	.	.
!	!	!LO:LB:g=original	!	!	!	!	!
=88	=88	=88	=88	=88	=88	=88	=88
2r	.	4r	.	2r	.	2r	.
.	.	8cc#\	in-	.	.	.	.
.	.	8cc#\	-ter	.	.	.	.
=89	=89	=89	=89	=89	=89	=89	=89
2r	.	8cc#\	gen-	2r	.	2r	.
.	.	8cc#\	-tes,	.	.	.	.
.	.	8cc#\	nec	.	.	.	.
.	.	8cc#\	in-	.	.	.	.
=90	=90	=90	=90	=90	=90	=90	=90
2r	.	4dd\	-ve-	2r	.	2r	.
.	.	4b\	-nit	.	.	.	.
=91	=91	=91	=91	=91	=91	=91	=91
2r	.	8b\	re-	2r	.	2r	.
.	.	8b\	-qui-	.	.	.	.
.	.	4b\	-em,	.	.	.	.
=92	=92	=92	=92	=92	=92	=92	=92
2r	.	2a;\	.	2r	.	2r	.
!	!	!LO:LB:g=original	!	!	!	!	!
=93||	=93||	=93||	=93||	=93||	=93||	=93||	=93||
2r	.	4a\	om-	2r	.	2r	.
.	.	4b\	.	.	.	.	.
=94	=94	=94	=94	=94	=94	=94	=94
2r	.	8cc#\	.	2r	.	2r	.
.	.	8cc#\	-nes	.	.	.	.
.	.	8cc#\	per-	.	.	.	.
.	.	16cc#\	-se-	.	.	.	.
.	.	16cc#\	-cu-	.	.	.	.
=95	=95	=95	=95	=95	=95	=95	=95
2r	.	8cc#\	-to-	2r	.	2r	.
.	.	8cc#\	-res	.	.	.	.
.	.	8cc#\	e-	.	.	.	.
.	.	8cc#\	-jus	.	.	.	.
=96	=96	=96	=96	=96	=96	=96	=96
2r	.	8r	.	2r	.	2r	.
.	.	8cc#\	ap-	.	.	.	.
.	.	8cc#\	-pre-	.	.	.	.
.	.	8cc#\	-hen-	.	.	.	.
=97	=97	=97	=97	=97	=97	=97	=97
2r	.	8cc#\	-de-	2r	.	2r	.
.	.	8cc#\	-runt	.	.	.	.
.	.	8cc#\	e-	.	.	.	.
.	.	8cc#\	-um	.	.	.	.
=98	=98	=98	=98	=98	=98	=98	=98
2r	.	4dd\	in-	2r	.	2r	.
.	.	4b\	-ter	.	.	.	.
=99	=99	=99	=99	=99	=99	=99	=99
2r	.	4a\	an-	2r	.	2r	.
.	.	4g#\	-gu-	.	.	.	.
=100	=100	=100	=100	=100	=100	=100	=100
2r	.	4a\	.	2r	.	2r	.
.	.	8b\	.	.	.	.	.
.	.	8b\	-sti-	.	.	.	.
!	!	!LO:LB:g=original	!	!	!	!	!
=101	=101	=101	=101	=101	=101	=101	=101
2r	.	2b\	-as,	2r	.	2r	.
=102	=102	=102	=102	=102	=102	=102	=102
2r	.	2a;\	.	2r	.	2r	.
=103||	=103||	=103||	=103||	=103||	=103||	=103||	=103||
2r	.	4cc#\	Da-	2r	.	2r	.
.	.	4b\	.	.	.	.	.
=104	=104	=104	=104	=104	=104	=104	=104
2r	.	4a\	.	2r	.	2r	.
.	.	4b\	.	.	.	.	.
=105	=105	=105	=105	=105	=105	=105	=105
2r	.	2b\	-leth,	2r	.	2r	.
=106	=106	=106	=106	=106	=106	=106	=106
2r	.	2a;\	.	2r	.	2r	.
=107||	=107||	=107||	=107||	=107||	=107||	=107||	=107||
2r	.	4a\	vi-	2r	.	2r	.
.	.	(4b\	.	.	.	.	.
!	!	!LO:LB:g=original	!	!	!	!	!
=108	=108	=108	=108	=108	=108	=108	=108
2r	.	8cc#\)	.	2r	.	2r	.
.	.	8cc#\	-ae	.	.	.	.
.	.	8cc#\	Si-	.	.	.	.
.	.	8cc#\	-on	.	.	.	.
=109	=109	=109	=109	=109	=109	=109	=109
2r	.	8cc#\	lu-	2r	.	2r	.
.	.	8cc#\	-gent	.	.	.	.
.	.	4r	.	.	.	.	.
=110	=110	=110	=110	=110	=110	=110	=110
2r	.	8cc#\	e-	2r	.	2r	.
.	.	8cc#\	-o	.	.	.	.
.	.	8cc#\	quod	.	.	.	.
.	.	8cc#\	non	.	.	.	.
!	!	!LO:LB:g=original	!	!	!	!	!
=111	=111	=111	=111	=111	=111	=111	=111
2r	.	4cc#\	sint	2r	.	2r	.
.	.	8r	.	.	.	.	.
.	.	8cc#\	qui	.	.	.	.
=112	=112	=112	=112	=112	=112	=112	=112
2r	.	16cc#\	ve-	2r	.	2r	.
.	.	16cc#\	-ni-	.	.	.	.
.	.	8cc#\	-ant	.	.	.	.
.	.	8cc#\	ad	.	.	.	.
.	.	8cc#\	So-	.	.	.	.
=113	=113	=113	=113	=113	=113	=113	=113
2r	.	4dd\	-lem-	2r	.	2r	.
.	.	8b\	-ni-	.	.	.	.
.	.	8b\	-ta-	.	.	.	.
=114	=114	=114	=114	=114	=114	=114	=114
2r	.	2b\	-tem,	2r	.	2r	.
=115	=115	=115	=115	=115	=115	=115	=115
2r	.	2a;\	.	2r	.	2r	.
!	!	!LO:LB:g=original	!	!	!	!	!
=116||	=116||	=116||	=116||	=116||	=116||	=116||	=116||
2r	.	4a\	om-	2r	.	2r	.
.	.	(4b\	.	.	.	.	.
=117||	=117||	=117||	=117||	=117||	=117||	=117||	=117||
2r	.	8cc#\)	.	2r	.	2r	.
.	.	8cc#\	-nes	.	.	.	.
.	.	8cc#\	por-	.	.	.	.
.	.	8cc#\	-tae	.	.	.	.
=118	=118	=118	=118	=118	=118	=118	=118
2r	.	4dd\	e-	2r	.	2r	.
.	.	4cc#\	-jus	.	.	.	.
=119	=119	=119	=119	=119	=119	=119	=119
2r	.	8cc#\	de-	2r	.	2r	.
.	.	8b\	-stru-	.	.	.	.
.	.	(4b\	-ctae,	.	.	.	.
=120	=120	=120	=120	=120	=120	=120	=120
2r	.	4cc#\)	.	2r	.	2r	.
.	.	4r	.	.	.	.	.
!	!	!LO:LB:g=original	!	!	!	!	!
=121	=121	=121	=121	=121	=121	=121	=121
2r	.	4a\	Sa-	2r	.	2r	.
.	.	4b\	-cer-	.	.	.	.
=122	=122	=122	=122	=122	=122	=122	=122
2r	.	8cc#\	-do-	2r	.	2r	.
.	.	8cc#\	-tes	.	.	.	.
.	.	8cc#\	e-	.	.	.	.
.	.	16cc#\	-jus	.	.	.	.
.	.	16cc#\	ge-	.	.	.	.
=123	=123	=123	=123	=123	=123	=123	=123
2r	.	8cc#\	-men-	2r	.	2r	.
.	.	8cc#\	-tes,	.	.	.	.
.	.	4r	.	.	.	.	.
=124	=124	=124	=124	=124	=124	=124	=124
2r	.	8cc#\	vir-	2r	.	2r	.
.	.	16cc#\	-gi-	.	.	.	.
.	.	16cc#\	-nes	.	.	.	.
.	.	8cc#\	e-	.	.	.	.
.	.	8cc#\	-jus	.	.	.	.
!	!	!LO:PB:g=original	!	!	!	!	!
=125	=125	=125	=125	=125	=125	=125	=125
2r	.	16cc#\	squa-	2r	.	2r	.
.	.	16cc#\	-li-	.	.	.	.
.	.	8cc#\	-dae,	.	.	.	.
.	.	8r	.	.	.	.	.
.	.	8cc#\	et	.	.	.	.
=126	=126	=126	=126	=126	=126	=126	=126
2r	.	8cc#\	i-	2r	.	2r	.
.	.	16cc#\	-psa	.	.	.	.
.	.	16cc#\	op-	.	.	.	.
.	.	8cc#\	-pres-	.	.	.	.
.	.	8cc#\	-sa	.	.	.	.
=127	=127	=127	=127	=127	=127	=127	=127
2r	.	4dd\	a-	2r	.	2r	.
.	.	4b\	-ma-	.	.	.	.
=128	=128	=128	=128	=128	=128	=128	=128
2r	.	4a\	-ri-	2r	.	2r	.
.	.	4g#\	-tu-	.	.	.	.
!	!	!LO:LB:g=original	!	!	!	!	!
=129	=129	=129	=129	=129	=129	=129	=129
2r	.	4a\	.	2r	.	2r	.
.	.	8.b\	.	.	.	.	.
.	.	16b\	-di-	.	.	.	.
=130	=130	=130	=130	=130	=130	=130	=130
2r	.	2b\	-ne,	2r	.	2r	.
=131	=131	=131	=131	=131	=131	=131	=131
2r	.	2a;\	.	2r	.	2r	.
=132||	=132||	=132||	=132||	=132||	=132||	=132||	=132||
2r	.	4cc#\	He,	2r	.	2r	.
.	.	4b\	.	.	.	.	.
=133	=133	=133	=133	=133	=133	=133	=133
2r	.	4a\	.	2r	.	2r	.
.	.	4b\	.	.	.	.	.
=134	=134	=134	=134	=134	=134	=134	=134
2r	.	2a;\	.	2r	.	2r	.
!	!	!LO:LB:g=original	!	!	!	!	!
=135||	=135||	=135||	=135||	=135||	=135||	=135||	=135||
2r	.	4a\	fac-	2r	.	2r	.
.	.	4b\	.	.	.	.	.
=136	=136	=136	=136	=136	=136	=136	=136
2r	.	4cc#\	.	2r	.	2r	.
.	.	8cc#\	-ti	.	.	.	.
.	.	8cc#\	sunt	.	.	.	.
=137	=137	=137	=137	=137	=137	=137	=137
2r	.	8cc#\	hos-	2r	.	2r	.
.	.	8cc#\	-tes	.	.	.	.
.	.	8cc#\	e-	.	.	.	.
.	.	8cc#\	-jus	.	.	.	.
=138	=138	=138	=138	=138	=138	=138	=138
2r	.	8r	.	2r	.	2r	.
.	.	8cc#\	in	.	.	.	.
.	.	16cc#\	ca-	.	.	.	.
.	.	16cc#\	-pi-	.	.	.	.
.	.	8cc#\	-te,	.	.	.	.
!	!	!LO:LB:g=original	!	!	!	!	!
=139	=139	=139	=139	=139	=139	=139	=139
2r	.	4r	.	2r	.	2r	.
.	.	8cc#\	i-	.	.	.	.
.	.	8cc#\	-ni-	.	.	.	.
=140	=140	=140	=140	=140	=140	=140	=140
2r	.	8cc#\	-mi-	2r	.	2r	.
.	.	8cc#\	-ci	.	.	.	.
.	.	8cc#\	e-	.	.	.	.
.	.	8cc#\	-jus	.	.	.	.
=141	=141	=141	=141	=141	=141	=141	=141
2r	.	4dd\	lo-	2r	.	2r	.
.	.	8cc#\	-cu-	.	.	.	.
.	.	8cc#\	-ple-	.	.	.	.
=142	=142	=142	=142	=142	=142	=142	=142
2r	.	8b\	-ta-	2r	.	2r	.
.	.	8b\	-ti	.	.	.	.
.	.	(4b\	sunt,	.	.	.	.
!	!	!LO:LB:g=original	!	!	!	!	!
=143	=143	=143	=143	=143	=143	=143	=143
2r	.	4cc#\)	.	2r	.	2r	.
.	.	4r	.	.	.	.	.
=144	=144	=144	=144	=144	=144	=144	=144
2r	.	4a\	qui-	2r	.	2r	.
.	.	4b\	-a	.	.	.	.
=145	=145	=145	=145	=145	=145	=145	=145
2r	.	8.cc#\	Do-	2r	.	2r	.
.	.	16cc#\	-mi-	.	.	.	.
.	.	8cc#\	-nus	.	.	.	.
.	.	8cc#\	lo-	.	.	.	.
=146	=146	=146	=146	=146	=146	=146	=146
2r	.	8cc#\	-cu-	2r	.	2r	.
.	.	8cc#\	-tus	.	.	.	.
.	.	4cc#\	est,	.	.	.	.
=147	=147	=147	=147	=147	=147	=147	=147
2r	.	4r	.	2r	.	2r	.
.	.	8cc#\	su-	.	.	.	.
.	.	8cc#\	-per	.	.	.	.
!	!	!LO:LB:g=original	!	!	!	!	!
=148	=148	=148	=148	=148	=148	=148	=148
2r	.	8cc#\	e-	2r	.	2r	.
.	.	8cc#\	-am,	.	.	.	.
.	.	4r	.	.	.	.	.
=149	=149	=149	=149	=149	=149	=149	=149
2r	.	8cc#\	pro-	2r	.	2r	.
.	.	8cc#\	-pter	.	.	.	.
.	.	8cc#\	mul-	.	.	.	.
.	.	8cc#\	-ti-	.	.	.	.
=150	=150	=150	=150	=150	=150	=150	=150
2r	.	8.cc#\	-tu-	2r	.	2r	.
.	.	16cc#\	-di-	.	.	.	.
.	.	4cc#\	-nem	.	.	.	.
=151	=151	=151	=151	=151	=151	=151	=151
2r	.	8r	.	2r	.	2r	.
.	.	8cc#\	i-	.	.	.	.
.	.	8cc#\	-ni-	.	.	.	.
.	.	8cc#\	-qui-	.	.	.	.
!	!	!LO:LB:g=original	!	!	!	!	!
=152	=152	=152	=152	=152	=152	=152	=152
2r	.	4dd\	-ta-	2r	.	2r	.
.	.	8b\	-tum	.	.	.	.
.	.	8b\	e-	.	.	.	.
=153	=153	=153	=153	=153	=153	=153	=153
2r	.	2b\	-jus,	2r	.	2r	.
=154	=154	=154	=154	=154	=154	=154	=154
2r	.	2a;\	.	2r	.	2r	.
=155||	=155||	=155||	=155||	=155||	=155||	=155||	=155||
2r	.	4a\	par-	2r	.	2r	.
.	.	(4b\	.	.	.	.	.
=156	=156	=156	=156	=156	=156	=156	=156
2r	.	8cc#\)	.	2r	.	2r	.
.	.	16cc#\	-vu-	.	.	.	.
.	.	16cc#\	-li	.	.	.	.
.	.	8cc#\	e-	.	.	.	.
.	.	8cc#\	-jus	.	.	.	.
!	!	!LO:LB:g=original	!	!	!	!	!
=157	=157	=157	=157	=157	=157	=157	=157
2r	.	8cc#\	du-	2r	.	2r	.
.	.	8cc#\	-cti	.	.	.	.
.	.	4cc#\	sunt	.	.	.	.
=158	=158	=158	=158	=158	=158	=158	=158
2r	.	8r	.	2r	.	2r	.
.	.	8cc#\	in	.	.	.	.
.	.	8cc#\	cap-	.	.	.	.
.	.	16cc#\	-ti-	.	.	.	.
.	.	16cc#\	-vi-	.	.	.	.
=159	=159	=159	=159	=159	=159	=159	=159
2r	.	8cc#\	-ta-	2r	.	2r	.
.	.	8cc#\	-tem,	.	.	.	.
.	.	4r	.	.	.	.	.
=160	=160	=160	=160	=160	=160	=160	=160
2r	.	8cc#\	an-	2r	.	2r	.
.	.	8cc#\	-te	.	.	.	.
.	.	8cc#\	fa-	.	.	.	.
.	.	16cc#\	-ci-	.	.	.	.
.	.	16cc#\	-em	.	.	.	.
!	!	!LO:LB:g=original	!	!	!	!	!
=161	=161	=161	=161	=161	=161	=161	=161
2r	.	(4dd\	tri-	2r	.	2r	.
.	.	8b\)	.	.	.	.	.
.	.	8b\	-bu-	.	.	.	.
=162	=162	=162	=162	=162	=162	=162	=162
2r	.	4a\	-lan-	2r	.	2r	.
.	.	4g#\	.	.	.	.	.
=163	=163	=163	=163	=163	=163	=163	=163
2r	.	4a\	.	2r	.	2r	.
.	.	4b\	.	.	.	.	.
=164	=164	=164	=164	=164	=164	=164	=164
2r	.	2b\	-tis,	2r	.	2r	.
=165	=165	=165	=165	=165	=165	=165	=165
2r	.	2a;\	.	2r	.	2r	.
=166||	=166||	=166||	=166||	=166||	=166||	=166||	=166||
2r	.	4a\	Je-	2r	.	2r	.
.	.	(4b\	-ru-	.	.	.	.
=167	=167	=167	=167	=167	=167	=167	=167
2r	.	8cc#\)	.	2r	.	2r	.
.	.	8cc#\	-sa-	.	.	.	.
.	.	4cc#\	-lem,	.	.	.	.
!	!	!LO:LB:g=original	!	!	!	!	!
=168	=168	=168	=168	=168	=168	=168	=168
2r	.	4r	.	2r	.	2r	.
.	.	4cc#\	Je-	.	.	.	.
=169	=169	=169	=169	=169	=169	=169	=169
2r	.	(4dd\	-ru-	2r	.	2r	.
.	.	(4cc#\)	.	.	.	.	.
=170	=170	=170	=170	=170	=170	=170	=170
2r	.	8b\)	.	2r	.	2r	.
.	.	8b\	-sa-	.	.	.	.
.	.	(4b\	-lem,	.	.	.	.
=171	=171	=171	=171	=171	=171	=171	=171
2r	.	4cc#\)	.	2r	.	2r	.
.	.	4r	.	.	.	.	.
=172	=172	=172	=172	=172	=172	=172	=172
2r	.	4a\	con-	2r	.	2r	.
.	.	(4b\	-ver-	.	.	.	.
=173	=173	=173	=173	=173	=173	=173	=173
2r	.	8cc#\)	.	2r	.	2r	.
.	.	8cc#\	-te-	.	.	.	.
.	.	4cc#\	-re	.	.	.	.
!	!	!LO:LB:g=original	!	!	!	!	!
=174	=174	=174	=174	=174	=174	=174	=174
2r	.	8r	.	2r	.	2r	.
.	.	8cc#\	ad	.	.	.	.
.	.	8cc#\	Do-	.	.	.	.
.	.	16cc#\	-mi-	.	.	.	.
.	.	16cc#\	-num	.	.	.	.
=175	=175	=175	=175	=175	=175	=175	=175
2r	.	4dd\	De-	2r	.	2r	.
.	.	4b\	-um	.	.	.	.
=176	=176	=176	=176	=176	=176	=176	=176
2r	.	4a\	tu-	2r	.	2r	.
.	.	4g#\	.	.	.	.	.
=177	=177	=177	=177	=177	=177	=177	=177
2r	.	4a\	.	2r	.	2r	.
.	.	4b\	.	.	.	.	.
=178	=178	=178	=178	=178	=178	=178	=178
2r	.	2b\	-um.	2r	.	2r	.
=179	=179	=179	=179	=179	=179	=179	=179
!	!	!LO:TX:a:i:t=Seq Responsorium 1mum.	!	!	!	!	!
2r	.	2a;\	.	2r	.	2r	.
=180||	=180||	=180||	=180||	=180||	=180||	=180||	=180||
==	==	==	==	==	==	==	==
*-	*-	*-	*-	*-	*-	*-	*-
!!!system-decoration: [(s1,s2,s3,s4)]
!!!YEM: Copyright © 2023 by [Copyright Holder]
!!!ENC: Anastazja Marusiak
!!!END: 2023-11-13
!!!ENC: Leszek Kubiak
!!!END: 2024-06-09
